polaris-icons/icons/new-icons/MagicMajor.svg

<svg width="20" height="20" viewBox="0 0 20 20" fill="none" xmlns="http://www.w3.org/2000/svg">
<path d="M5.70166 4.25283C5.93873 3.81937 6.56128 3.81937 6.79835 4.25283L6.99445 4.61138C7.20092 4.9889 7.51133 5.2993 7.88885 5.50578L8.2474 5.70187C8.68086 5.93894 8.68086 6.5615 8.24739 6.79857L7.88885 6.99466C7.51133 7.20114 7.20092 7.51154 6.99445 7.88907L6.79835 8.24761C6.56128 8.68107 5.93873 8.68107 5.70166 8.24761L5.50557 7.88907C5.29909 7.51154 4.98869 7.20114 4.61116 6.99466L4.25262 6.79857C3.81915 6.5615 3.81915 5.93894 4.25262 5.70187L4.61116 5.50578C4.98869 5.2993 5.29909 4.9889 5.50557 4.61138L5.70166 4.25283Z" fill="#4A4A4A"/>
<path fill-rule="evenodd" clip-rule="evenodd" d="M12.9482 7.88939C12.7681 6.72309 11.0961 6.7002 10.8841 7.86114L10.8542 8.02466C10.5691 9.58629 9.33284 10.8 7.76623 11.0564C6.61689 11.2445 6.59311 12.8889 7.73654 13.1102L7.84147 13.1305C9.37436 13.4271 10.573 14.6258 10.8696 16.1587L10.9016 16.3239C11.1354 17.5321 12.8646 17.5321 13.0984 16.3239L13.1233 16.1951C13.4236 14.6432 14.6451 13.4345 16.2001 13.1505C17.3843 12.9343 17.3194 11.2219 16.1289 11.0431C14.4983 10.7981 13.1999 9.51896 12.9482 7.88939ZM12.0043 14.7766C12.5124 13.6203 13.4157 12.6825 14.5455 12.1301C13.3974 11.6201 12.4616 10.7148 11.9184 9.5816C11.4033 10.68 10.5219 11.5673 9.43018 12.0903C10.5801 12.6456 11.4968 13.5996 12.0043 14.7766Z" fill="#4A4A4A"/>
</svg>

<svg viewBox="0 0 20 20" xmlns="http://www.w3.org/2000/svg"><path d="M5.702 4.253a.625.625 0 0 1 1.096 0l.196.358c.207.378.517.688.895.895l.358.196a.625.625 0 0 1 0 1.097l-.358.196a2.25 2.25 0 0 0-.895.894l-.196.359a.625.625 0 0 1-1.096 0l-.196-.359a2.25 2.25 0 0 0-.895-.894l-.358-.196a.625.625 0 0 1 0-1.097l.358-.196a2.25 2.25 0 0 0 .895-.895l.196-.358Z" fill="#5C5F62"/><path fill-rule="evenodd" d="M12.948 7.89c-.18-1.167-1.852-1.19-2.064-.029l-.03.164a3.756 3.756 0 0 1-3.088 3.031c-1.15.189-1.173 1.833-.03 2.054l.105.02a3.824 3.824 0 0 1 3.029 3.029l.032.165c.233 1.208 1.963 1.208 2.196 0l.025-.129a3.836 3.836 0 0 1 3.077-3.045c1.184-.216 1.12-1.928-.071-2.107a3.789 3.789 0 0 1-3.18-3.154Zm-.944 6.887a5.34 5.34 0 0 1 2.542-2.647 5.305 5.305 0 0 1-2.628-2.548 5.262 5.262 0 0 1-2.488 2.508 5.329 5.329 0 0 1 2.574 2.687Z" fill="#5C5F62"/></svg>
